X: 11154
Q: "Slow."
M: 3/4
L: 1/8
K: D
|:\
(E2 F2) A2 | TB4 (de) | f2 (gf)(ed) | {f}Te4 (de/f/) |\
d2 D2 F2 | d2 (ed)(cB) | (A2 B2) d2 | F3 E D2 |\
E2 e2 (ef/g/) | {f}e4 (de) |
d2 A2 d2 | (d>c)(de)(fe) | (d>e)(dB)(AG) | TF3 E D2 |\
(G>B)(AG)(FE) | (F>A)(GF)(ED) | E2 F2 A2 | TB4 A2 :|


